Newaita-dark/.places-darknight/64/user-trash.svg

<?xml version="1.0" encoding="UTF-8"?>
<svg xmlns="http://www.w3.org/2000/svg" xmlns:xlink="http://www.w3.org/1999/xlink" width="64pt" height="64pt" viewBox="0 0 64 64" version="1.1">
<defs>
<linearGradient id="linear0" gradientUnits="userSpaceOnUse" x1="254" y1="233.5" x2="254" y2="254.666672" gradientTransform="matrix(0.125012,0,0,0.125012,-0.00000763012,26.87757)">
<stop offset="0" style="stop-color:rgb(0%,0%,0%);stop-opacity:0.27451;"/>
<stop offset="1" style="stop-color:rgb(0%,0%,0%);stop-opacity:0;"/>
</linearGradient>
<radialGradient id="radial0" gradientUnits="userSpaceOnUse" cx="450.908936" cy="189.579361" fx="450.908936" fy="189.579361" r="21.166656" gradientTransform="matrix(0.000000348341,-0.156265,-0.281277,-0.000000203077,98.969131,127.190665)">
<stop offset="0" style="stop-color:rgb(0%,0%,0%);stop-opacity:0.313725;"/>
<stop offset="0.222222" style="stop-color:rgb(0%,0%,0%);stop-opacity:0.27451;"/>
<stop offset="1" style="stop-color:rgb(0%,0%,0%);stop-opacity:0;"/>
</radialGradient>
<radialGradient id="radial1" gradientUnits="userSpaceOnUse" cx="450.908936" cy="189.579361" fx="450.908936" fy="189.579361" r="21.166656" gradientTransform="matrix(-0.000000348341,0.156265,0.281277,0.000000203077,-35.463065,-15.054958)">
<stop offset="0" style="stop-color:rgb(0%,0%,0%);stop-opacity:0.313725;"/>
<stop offset="0.222222" style="stop-color:rgb(0%,0%,0%);stop-opacity:0.27451;"/>
<stop offset="1" style="stop-color:rgb(0%,0%,0%);stop-opacity:0;"/>
</radialGradient>
<radialGradient id="radial2" gradientUnits="userSpaceOnUse" cx="450.908936" cy="189.579361" fx="450.908936" fy="189.579361" r="21.166656" gradientTransform="matrix(-0.000000348341,-0.156265,0.281277,-0.000000203077,-35.463065,127.190665)">
<stop offset="0" style="stop-color:rgb(0%,0%,0%);stop-opacity:0.313725;"/>
<stop offset="0.222222" style="stop-color:rgb(0%,0%,0%);stop-opacity:0.27451;"/>
<stop offset="1" style="stop-color:rgb(0%,0%,0%);stop-opacity:0;"/>
</radialGradient>
<radialGradient id="radial3" gradientUnits="userSpaceOnUse" cx="450.908936" cy="189.579361" fx="450.908936" fy="189.579361" r="21.166656" gradientTransform="matrix(0.000000348341,0.156265,-0.281277,0.000000203077,98.969127,-15.054959)">
<stop offset="0" style="stop-color:rgb(0%,0%,0%);stop-opacity:0.313725;"/>
<stop offset="0.222222" style="stop-color:rgb(0%,0%,0%);stop-opacity:0.27451;"/>
<stop offset="1" style="stop-color:rgb(0%,0%,0%);stop-opacity:0;"/>
</radialGradient>
<linearGradient id="linear1" gradientUnits="userSpaceOnUse" x1="254" y1="233.5" x2="254" y2="-168.666656" >
<stop offset="0" style="stop-color:rgb(25.882353%,25.882353%,25.882353%);stop-opacity:1;"/>
<stop offset="1" style="stop-color:rgb(38.039216%,38.039216%,38.039216%);stop-opacity:1;"/>
</linearGradient>
<linearGradient id="linear2" gradientUnits="userSpaceOnUse" x1="253.999985" y1="233.5" x2="253.999985" y2="-105.166672" gradientTransform="matrix(1,0,0,1,84.666679,0)">
<stop offset="0" style="stop-color:rgb(25.882353%,25.882353%,25.882353%);stop-opacity:1;"/>
<stop offset="1" style="stop-color:rgb(38.039216%,38.039216%,38.039216%);stop-opacity:1;"/>
</linearGradient>
<linearGradient id="linear3" gradientUnits="userSpaceOnUse" x1="275.166656" y1="233.5" x2="275.166656" y2="-105.166672" >
<stop offset="0" style="stop-color:rgb(25.882353%,25.882353%,25.882353%);stop-opacity:1;"/>
<stop offset="1" style="stop-color:rgb(38.039216%,38.039216%,38.039216%);stop-opacity:1;"/>
</linearGradient>
<linearGradient id="linear4" gradientUnits="userSpaceOnUse" x1="253.999985" y1="233.5" x2="253.999985" y2="-105.166656" gradientTransform="matrix(1,0,0,1,-84.666656,0)">
<stop offset="0" style="stop-color:rgb(25.882353%,25.882353%,25.882353%);stop-opacity:1;"/>
<stop offset="1" style="stop-color:rgb(38.039216%,38.039216%,38.039216%);stop-opacity:1;"/>
</linearGradient>
</defs>
<g id="surface1">
<path style=" stroke:none;fill-rule:nonzero;fill:url(#linear0);" d="M 17.199219 56.066406 L 46.304688 56.066406 L 46.304688 58.714844 L 17.199219 58.714844 Z M 17.199219 56.066406 "/>
<path style=" stroke:none;fill-rule:nonzero;fill:url(#radial0);" d="M 46.304688 56.066406 L 51.597656 56.066406 L 51.597656 53.421875 L 46.304688 53.421875 Z M 46.304688 56.066406 "/>
<path style=" stroke:none;fill-rule:nonzero;fill:url(#radial1);" d="M 17.199219 56.066406 L 11.90625 56.066406 L 11.90625 58.714844 L 17.199219 58.714844 Z M 17.199219 56.066406 "/>
<path style=" stroke:none;fill-rule:nonzero;fill:url(#radial2);" d="M 17.199219 56.066406 L 11.90625 56.066406 L 11.90625 53.421875 L 17.199219 53.421875 Z M 17.199219 56.066406 "/>
<path style=" stroke:none;fill-rule:nonzero;fill:url(#radial3);" d="M 46.304688 56.066406 L 51.597656 56.066406 L 51.597656 58.714844 L 46.304688 58.714844 Z M 46.304688 56.066406 "/>
<path style=" stroke:none;fill-rule:nonzero;fill:rgb(38.039216%,38.039216%,38.039216%);fill-opacity:1;" d="M 14.554688 13.730469 L 48.953125 13.730469 C 50.414062 13.730469 51.597656 14.914062 51.597656 16.375 L 51.597656 53.421875 C 51.597656 54.882812 50.414062 56.066406 48.953125 56.066406 L 14.554688 56.066406 C 13.09375 56.066406 11.90625 54.882812 11.90625 53.421875 L 11.90625 16.375 C 11.90625 14.914062 13.09375 13.730469 14.554688 13.730469 Z M 14.554688 13.730469 "/>
<path style=" stroke:none;fill-rule:nonzero;fill:rgb(0%,0%,0%);fill-opacity:0.196078;" d="M 11.90625 50.445312 L 51.597656 50.445312 L 51.597656 50.777344 L 11.90625 50.777344 Z M 11.90625 50.445312 "/>
<path style=" stroke:none;fill-rule:nonzero;fill:rgb(90.196079%,90.196079%,90.196079%);fill-opacity:0.588235;" d="M 11.90625 50.777344 L 51.597656 50.777344 L 51.597656 51.105469 L 11.90625 51.105469 Z M 11.90625 50.777344 "/>
<path style=" stroke:none;fill-rule:nonzero;fill:rgb(12.941177%,12.941177%,12.941177%);fill-opacity:0.992157;" d="M 11.90625 50.609375 L 51.597656 50.609375 L 51.597656 50.941406 L 11.90625 50.941406 Z M 11.90625 50.609375 "/>
<path style="fill-rule:nonzero;fill:url(#linear1);stroke-width:3;stroke-linecap:round;stroke-linejoin:miter;stroke:rgb(12.941177%,12.941177%,12.941177%);stroke-opacity:1;stroke-miterlimit:4;" d="M 254.006994 -168.660675 C 265.693378 -168.660675 275.161223 -159.192829 275.161223 -147.506445 C 275.161223 -135.820061 265.693378 -126.320968 254.006994 -126.320968 C 242.32061 -126.320968 232.821517 -135.820061 232.821517 -147.506445 C 232.821517 -159.192829 242.32061 -168.660675 254.006994 -168.660675 Z M 254.006994 -168.660675 " transform="matrix(0.125012,0,0,0.125012,0,26.877566)"/>
<path style="fill-rule:nonzero;fill:rgb(38.039216%,38.039216%,38.039216%);fill-opacity:1;stroke-width:3;stroke-linecap:round;stroke-linejoin:miter;stroke:rgb(12.941177%,12.941177%,12.941177%);stroke-opacity:1;stroke-miterlimit:4;" d="M 105.833643 -147.506445 L 402.180344 -147.506445 C 413.866728 -147.506445 423.334574 -138.038599 423.334574 -126.320968 C 423.334574 -114.634584 413.866728 -105.166739 402.180344 -105.166739 L 105.833643 -105.166739 C 94.147259 -105.166739 84.679414 -114.634584 84.679414 -126.320968 C 84.679414 -138.038599 94.147259 -147.506445 105.833643 -147.506445 Z M 105.833643 -147.506445 " transform="matrix(0.125012,0,0,0.125012,0,26.877566)"/>
<path style="fill-rule:nonzero;fill:url(#linear2);stroke-width:3;stroke-linecap:round;stroke-linejoin:miter;stroke:rgb(12.941177%,12.941177%,12.941177%);stroke-opacity:1;stroke-miterlimit:4;" d="M 338.65516 -62.827032 C 350.341544 -62.827032 359.840637 -53.359186 359.840637 -41.672802 L 359.840637 148.840255 C 359.840637 160.526639 350.341544 169.994485 338.65516 169.994485 C 326.968776 169.994485 317.50093 160.526639 317.50093 148.840255 L 317.50093 -41.672802 C 317.50093 -53.359186 326.968776 -62.827032 338.65516 -62.827032 Z M 338.65516 -62.827032 " transform="matrix(0.125012,0,0,0.125012,0,26.877566)"/>
<path style=" stroke:none;fill-rule:nonzero;fill:rgb(90.196079%,90.196079%,90.196079%);fill-opacity:0.392157;" d="M 13.230469 8.625 C 11.765625 8.625 10.585938 9.804688 10.585938 11.269531 L 10.585938 11.601562 C 10.585938 10.132812 11.765625 8.953125 13.230469 8.953125 L 50.277344 8.953125 C 51.742188 8.953125 52.921875 10.132812 52.921875 11.601562 L 52.921875 11.269531 C 52.921875 9.804688 51.742188 8.625 50.277344 8.625 Z M 13.230469 8.625 "/>
<path style=" stroke:none;fill-rule:nonzero;fill:rgb(0%,0%,0%);fill-opacity:0.196078;" d="M 13.230469 13.53125 C 11.765625 13.53125 10.585938 12.351562 10.585938 10.882812 L 10.585938 10.554688 C 10.585938 12.019531 11.765625 13.199219 13.230469 13.199219 L 50.277344 13.199219 C 51.742188 13.199219 52.921875 12.019531 52.921875 10.554688 L 52.921875 10.882812 C 52.921875 12.351562 51.742188 13.53125 50.277344 13.53125 Z M 13.230469 13.53125 "/>
<path style=" stroke:none;fill-rule:nonzero;fill:rgb(20%,20%,20%);fill-opacity:1;" d="M 13.230469 8.25 C 11.664062 8.25 10.398438 9.519531 10.398438 11.085938 C 10.398438 12.652344 11.664062 13.917969 13.230469 13.917969 L 50.277344 13.917969 C 51.84375 13.917969 53.109375 12.652344 53.109375 11.085938 C 53.109375 9.519531 51.84375 8.25 50.277344 8.25 Z M 13.230469 8.625 L 50.277344 8.625 C 51.640625 8.625 52.734375 9.71875 52.734375 11.085938 C 52.734375 12.449219 51.640625 13.542969 50.277344 13.542969 L 13.230469 13.542969 C 11.863281 13.542969 10.773438 12.449219 10.773438 11.085938 C 10.773438 9.71875 11.863281 8.625 13.230469 8.625 Z M 13.230469 8.625 "/>
<path style=" stroke:none;fill-rule:nonzero;fill:rgb(90.196079%,90.196079%,90.196079%);fill-opacity:0.392157;" d="M 14.554688 13.90625 C 13.085938 13.90625 11.90625 15.085938 11.90625 16.550781 L 11.90625 16.882812 C 11.90625 15.414062 13.085938 14.234375 14.554688 14.234375 L 48.953125 14.234375 C 50.417969 14.234375 51.597656 15.414062 51.597656 16.882812 L 51.597656 16.550781 C 51.597656 15.085938 50.417969 13.90625 48.953125 13.90625 Z M 14.554688 13.90625 "/>
<path style=" stroke:none;fill-rule:nonzero;fill:rgb(0%,0%,0%);fill-opacity:0.196078;" d="M 14.554688 55.867188 C 13.085938 55.867188 11.90625 54.6875 11.90625 53.222656 L 11.90625 52.890625 C 11.90625 54.355469 13.085938 55.535156 14.554688 55.535156 L 48.953125 55.535156 C 50.417969 55.535156 51.597656 54.355469 51.597656 52.890625 L 51.597656 53.222656 C 51.597656 54.6875 50.417969 55.867188 48.953125 55.867188 Z M 14.554688 55.867188 "/>
<path style="fill:none;stroke-width:3;stroke-linecap:round;stroke-linejoin:miter;stroke:rgb(12.941177%,12.941177%,12.941177%);stroke-opacity:1;stroke-miterlimit:4;" d="M 116.426382 -105.166739 L 391.587605 -105.166739 C 403.273989 -105.166739 412.741835 -95.698893 412.741835 -84.012509 L 412.741835 212.334192 C 412.741835 224.020576 403.273989 233.488421 391.587605 233.488421 L 116.426382 233.488421 C 104.739998 233.488421 95.240905 224.020576 95.240905 212.334192 L 95.240905 -84.012509 C 95.240905 -95.698893 104.739998 -105.166739 116.426382 -105.166739 Z M 116.426382 -105.166739 " transform="matrix(0.125012,0,0,0.125012,0,26.877566)"/>
<path style="fill-rule:nonzero;fill:url(#linear3);stroke-width:3;stroke-linecap:round;stroke-linejoin:miter;stroke:rgb(12.941177%,12.941177%,12.941177%);stroke-opacity:1;stroke-miterlimit:4;" d="M 254.006994 -62.827032 C 265.693378 -62.827032 275.161223 -53.359186 275.161223 -41.672802 L 275.161223 148.840255 C 275.161223 160.526639 265.693378 169.994485 254.006994 169.994485 C 242.32061 169.994485 232.821517 160.526639 232.821517 148.840255 L 232.821517 -41.672802 C 232.821517 -53.359186 242.32061 -62.827032 254.006994 -62.827032 Z M 254.006994 -62.827032 " transform="matrix(0.125012,0,0,0.125012,0,26.877566)"/>
<path style="fill-rule:nonzero;fill:url(#linear4);stroke-width:3;stroke-linecap:round;stroke-linejoin:miter;stroke:rgb(12.941177%,12.941177%,12.941177%);stroke-opacity:1;stroke-miterlimit:4;" d="M 169.32758 -62.827032 C 181.013964 -62.827032 190.513057 -53.359186 190.513057 -41.672802 L 190.513057 148.840255 C 190.513057 160.526639 181.013964 169.994485 169.32758 169.994485 C 157.641196 169.994485 148.17335 160.526639 148.17335 148.840255 L 148.17335 -41.672802 C 148.17335 -53.359186 157.641196 -62.827032 169.32758 -62.827032 Z M 169.32758 -62.827032 " transform="matrix(0.125012,0,0,0.125012,0,26.877566)"/>
</g>
</svg>

<svg xmlns="http://www.w3.org/2000/svg" width="64pt" height="64pt" viewBox="0 0 64 64"><defs><linearGradient id="a" gradientUnits="userSpaceOnUse" x1="254" y1="233.5" x2="254" y2="254.667" gradientTransform="translate(0 26.878) scale(.12501)"><stop offset="0" stop-opacity=".275"/><stop offset="1" stop-opacity="0"/></linearGradient><radialGradient id="b" gradientUnits="userSpaceOnUse" cx="450.909" cy="189.579" fx="450.909" fy="189.579" r="21.167" gradientTransform="matrix(0 -.15626 -.28128 0 98.97 127.19)"><stop offset="0" stop-opacity=".314"/><stop offset=".222" stop-opacity=".275"/><stop offset="1" stop-opacity="0"/></radialGradient><radialGradient id="c" gradientUnits="userSpaceOnUse" cx="450.909" cy="189.579" fx="450.909" fy="189.579" r="21.167" gradientTransform="matrix(0 .15626 .28128 0 -35.463 -15.055)"><stop offset="0" stop-opacity=".314"/><stop offset=".222" stop-opacity=".275"/><stop offset="1" stop-opacity="0"/></radialGradient><radialGradient id="d" gradientUnits="userSpaceOnUse" cx="450.909" cy="189.579" fx="450.909" fy="189.579" r="21.167" gradientTransform="matrix(0 -.15626 .28128 0 -35.463 127.19)"><stop offset="0" stop-opacity=".314"/><stop offset=".222" stop-opacity=".275"/><stop offset="1" stop-opacity="0"/></radialGradient><radialGradient id="e" gradientUnits="userSpaceOnUse" cx="450.909" cy="189.579" fx="450.909" fy="189.579" r="21.167" gradientTransform="matrix(0 .15626 -.28128 0 98.97 -15.055)"><stop offset="0" stop-opacity=".314"/><stop offset=".222" stop-opacity=".275"/><stop offset="1" stop-opacity="0"/></radialGradient><linearGradient id="f" gradientUnits="userSpaceOnUse" x1="254" y1="233.5" x2="254" y2="-168.667"><stop offset="0" stop-color="#424242"/><stop offset="1" stop-color="#616161"/></linearGradient><linearGradient id="g" gradientUnits="userSpaceOnUse" x1="254" y1="233.5" x2="254" y2="-105.167" gradientTransform="translate(84.667)"><stop offset="0" stop-color="#424242"/><stop offset="1" stop-color="#616161"/></linearGradient><linearGradient id="h" gradientUnits="userSpaceOnUse" x1="275.167" y1="233.5" x2="275.167" y2="-105.167"><stop offset="0" stop-color="#424242"/><stop offset="1" stop-color="#616161"/></linearGradient><linearGradient id="i" gradientUnits="userSpaceOnUse" x1="254" y1="233.5" x2="254" y2="-105.167" gradientTransform="translate(-84.667)"><stop offset="0" stop-color="#424242"/><stop offset="1" stop-color="#616161"/></linearGradient></defs><path d="M17.2 56.066h29.105v2.649H17.199zm0 0" fill="url(#a)"/><path d="M46.305 56.066h5.293v-2.644h-5.293zm0 0" fill="url(#b)"/><path d="M17.2 56.066h-5.294v2.649H17.2zm0 0" fill="url(#c)"/><path d="M17.2 56.066h-5.294v-2.644H17.2zm0 0" fill="url(#d)"/><path d="M46.305 56.066h5.293v2.649h-5.293zm0 0" fill="url(#e)"/><path d="M14.555 13.73h34.398a2.644 2.644 0 0 1 2.645 2.645v37.047a2.644 2.644 0 0 1-2.645 2.644H14.555a2.647 2.647 0 0 1-2.649-2.644V16.375a2.647 2.647 0 0 1 2.649-2.645zm0 0" fill="#616161"/><path d="M11.906 50.445h39.692v.332H11.906zm0 0" fill-opacity=".196"/><path d="M11.906 50.777h39.692v.328H11.906zm0 0" fill="#e6e6e6" fill-opacity=".588"/><path d="M11.906 50.61h39.692v.331H11.906zm0 0" fill="#212121" fill-opacity=".992"/><path d="M254.007-168.66c11.686 0 21.154 9.467 21.154 21.154 0 11.686-9.468 21.185-21.154 21.185s-21.185-9.5-21.185-21.185c0-11.687 9.499-21.155 21.185-21.155zm0 0" transform="translate(0 26.878) scale(.12501)" fill="url(#f)" stroke-width="3" stroke-linecap="round" stroke="#212121"/><path d="M13.23 8.437h37.047a2.645 2.645 0 0 1 2.645 2.649 2.644 2.644 0 0 1-2.645 2.644H13.23a2.644 2.644 0 0 1-2.644-2.644 2.645 2.645 0 0 1 2.644-2.649zm0 0" fill="#616161" stroke-width=".37503000000000003" stroke-linecap="round" stroke="#212121"/><path d="M338.655-62.827c11.687 0 21.186 9.468 21.186 21.154V148.84c0 11.687-9.5 21.154-21.186 21.154s-21.154-9.467-21.154-21.154V-41.673c0-11.686 9.468-21.154 21.154-21.154zm0 0" transform="translate(0 26.878) scale(.12501)" fill="url(#g)" stroke-width="3" stroke-linecap="round" stroke="#212121"/><path d="M13.23 8.625a2.639 2.639 0 0 0-2.644 2.645v.332a2.64 2.64 0 0 1 2.644-2.649h37.047a2.64 2.64 0 0 1 2.645 2.649v-.332a2.639 2.639 0 0 0-2.645-2.645zm0 0" fill="#e6e6e6" fill-opacity=".392"/><path d="M13.23 13.531a2.64 2.64 0 0 1-2.644-2.648v-.328a2.639 2.639 0 0 0 2.644 2.644h37.047a2.639 2.639 0 0 0 2.645-2.644v.328a2.64 2.64 0 0 1-2.645 2.648zm0 0" fill-opacity=".196"/><path d="M13.23 8.25a2.832 2.832 0 0 0-2.832 2.836 2.83 2.83 0 0 0 2.832 2.832h37.047a2.83 2.83 0 0 0 2.832-2.832 2.832 2.832 0 0 0-2.832-2.836zm0 .375h37.047a2.45 2.45 0 0 1 2.457 2.46 2.449 2.449 0 0 1-2.457 2.458H13.23a2.447 2.447 0 0 1-2.457-2.457c0-1.367 1.09-2.461 2.457-2.461zm0 0" fill="#333"/><path d="M14.555 13.906a2.64 2.64 0 0 0-2.649 2.645v.332a2.64 2.64 0 0 1 2.649-2.649h34.398a2.64 2.64 0 0 1 2.645 2.649v-.332a2.639 2.639 0 0 0-2.645-2.645zm0 0" fill="#e6e6e6" fill-opacity=".392"/><path d="M14.555 55.867a2.64 2.64 0 0 1-2.649-2.644v-.332a2.64 2.64 0 0 0 2.649 2.644h34.398a2.639 2.639 0 0 0 2.645-2.644v.332a2.639 2.639 0 0 1-2.645 2.644zm0 0" fill-opacity=".196"/><path d="M14.555 13.73h34.398a2.644 2.644 0 0 1 2.645 2.645v37.047a2.644 2.644 0 0 1-2.645 2.644H14.555a2.647 2.647 0 0 1-2.649-2.644V16.375a2.647 2.647 0 0 1 2.649-2.645zm0 0" fill="none" stroke-width=".37503000000000003" stroke-linecap="round" stroke="#212121"/><path d="M254.007-62.827c11.686 0 21.154 9.468 21.154 21.154V148.84c0 11.687-9.468 21.154-21.154 21.154s-21.185-9.467-21.185-21.154V-41.673c0-11.686 9.499-21.154 21.185-21.154zm0 0" transform="translate(0 26.878) scale(.12501)" fill="url(#h)" stroke-width="3" stroke-linecap="round" stroke="#212121"/><path d="M169.328-62.827c11.686 0 21.185 9.468 21.185 21.154V148.84c0 11.687-9.499 21.154-21.185 21.154-11.687 0-21.155-9.467-21.155-21.154V-41.673c0-11.686 9.468-21.154 21.155-21.154zm0 0" transform="translate(0 26.878) scale(.12501)" fill="url(#i)" stroke-width="3" stroke-linecap="round" stroke="#212121"/></svg>
